X: 4390
T: HIGHLAND SCHOTTISCHE
R: Schottische
%R: shottish
B: James Kerr "Merry Melodies" v.4 p.42 #390
Z: 2016 John Chambers <jc:trillian.mit.edu>
M: C
L: 1/8
K: G
!segno!|:\
d2 d2 e>f g2 | (d<B) B>G F<A A<c |\
(B<d) d2 e>fg>e | (d<B) A>B G2- Gz H::\
d>gb>g a>gb>g | (e<g) d>B (e<g) d>B |
d>gb>g a>gb>g | (d<g) a>b g2- "_D.C."gz |]\
[K:=f][K:C]\
|: "Trio."\
E2 E2 G2 G2 | (3ABc (3dcA G3 F |\
[1,3 E2 E2 G2 G2 | (3ABc G>E D2 G>F :|
[2,4 E>F G2 A>B c2 | (G<c) d>e c2- "_D.C."cz |:\
e2 e2 e>c A2 | B>^GE>G A>B c2 |\
d2 d2 d>B G2 |[1 (3^FAF (3DE=F (3GGA (3Bcd :|\
[2 (3^FAF "_D.C. al Trio."(3DEF G2 =F2 |]

%%sep 1 1 500
%%sep 1 1 500

